packages/core/src/svgs/tokens/branded/RDD.svg

<svg width="24" height="24" viewBox="0 0 24 24" fill="none" xmlns="http://www.w3.org/2000/svg">
<path d="M8.15576 21.2221C8.81694 21.4634 9.50022 21.6396 10.196 21.7477L9.40587 20.1071L8.15576 21.2221Z" fill="#7EC34E"/>
<path d="M18.3072 8.95454H18.4123C20.3904 8.95454 22 7.42916 22 5.56693C21.9751 4.63953 21.5834 3.75987 20.9109 3.12089C20.2383 2.4819 19.3397 2.13576 18.4123 2.1584C17.5046 2.13469 16.6232 2.46323 15.9525 3.07517C15.2817 3.68711 14.8738 4.53492 14.8145 5.4409C15.5078 5.90875 16.1556 6.44064 16.7496 7.0296C17.4024 7.6818 17.9387 8.40746 18.3072 8.95454Z" fill="#ED1C24"/>
<path d="M10.6369 21.8003C10.9343 21.8301 11.233 21.8445 11.5316 21.8426H11.5418C12.5308 21.8426 13.4882 21.685 14.4038 21.4007L13.8352 16.1826L9.71118 19.8437L10.6369 21.8003Z" fill="#EF534E"/>
<path d="M14.1724 15.8881L14.7511 21.2748V21.2849C16.9725 20.4888 18.8197 18.897 19.9351 16.8176C21.0507 14.7381 21.3552 12.3188 20.79 10.0278L14.1724 15.8881Z" fill="#FFCB03"/>
<path d="M14.3723 4.27268C14.4983 3.95898 14.6569 3.65932 14.8453 3.37859H14.856C14.1759 3.12716 13.4704 2.95091 12.752 2.85301L14.1196 15.4353L20.6954 9.62767L20.506 9.04952C20.2059 9.20359 19.8924 9.33032 19.5695 9.42818C19.6392 9.54224 19.6992 9.66181 19.7488 9.78598C19.7732 9.84117 19.7769 9.90346 19.7594 9.9613C19.7419 10.0191 19.7042 10.0689 19.6532 10.1014L19.0224 10.5433C18.9756 10.5752 18.9208 10.5933 18.8641 10.5958H18.8015C18.7639 10.5862 18.7288 10.5692 18.698 10.5456C18.6672 10.5222 18.6414 10.4927 18.6223 10.4591C18.307 9.93342 17.4964 8.5968 16.308 7.40826C15.1296 6.20838 13.867 5.43015 13.3933 5.14586C13.34 5.11547 13.2999 5.06648 13.2804 5.0083C13.261 4.9501 13.2638 4.88679 13.2882 4.83052L13.52 4.17832C13.5445 4.11067 13.5933 4.05451 13.6567 4.02065C13.6893 4.00406 13.7252 3.99542 13.7619 3.99542C13.7984 3.99542 13.8344 4.00406 13.867 4.02065C13.9482 4.04752 14.0462 4.10007 14.1614 4.16219C14.2265 4.19743 14.2963 4.23505 14.3723 4.27268Z" fill="#F5811F"/>
<path d="M9.53288 19.4967L13.7829 15.7304H13.7936L12.9515 8.07063L5.23975 10.5116L9.53288 19.4967Z" fill="#EC1C24"/>
<path d="M2.03165 11.5425L2 12.3112C1.99978 14.1754 2.54568 15.999 3.57026 17.5565C4.59486 19.114 6.05324 20.3373 7.76529 21.0752L9.23807 19.7601L4.87219 10.6389L2.03165 11.5425Z" fill="#00A74F"/>
<path d="M3.3406 7.44947C2.6621 8.58034 2.23363 9.8434 2.08398 11.1537L4.71429 10.3115L3.3406 7.44947Z" fill="#0059A9"/>
<path d="M12.3736 2.81059C12.097 2.78934 11.8196 2.77877 11.5423 2.77893C9.96366 2.77571 8.40902 3.16547 7.01862 3.91306C5.62822 4.66065 4.44577 5.74257 3.57788 7.06124L5.08296 10.1855L12.8998 7.69194L12.3736 2.81059Z" fill="#0077C0"/>
</svg>

<svg xmlns="http://www.w3.org/2000/svg" width="24" height="24" fill="none" viewBox="0 0 24 24">
    <path fill="#7EC34E" d="M8.156 21.222c.66.241 1.344.418 2.04.526l-.79-1.64z"/>
    <path fill="#ED1C24" d="M18.307 8.955h.105C20.39 8.955 22 7.429 22 5.567a3.504 3.504 0 0 0-3.588-3.409 3.513 3.513 0 0 0-3.597 3.283q1.041.704 1.935 1.589a13 13 0 0 1 1.557 1.925"/>
    <path fill="#EF534E" d="M10.637 21.8q.446.045.895.043h.01c.989 0 1.946-.158 2.862-.442l-.569-5.218-4.124 3.66z"/>
    <path fill="#FFCB03" d="m14.172 15.888.58 5.387v.01a9.53 9.53 0 0 0 6.038-11.257z"/>
    <path fill="#F5811F" d="M14.372 4.273q.19-.473.473-.894h.011a10 10 0 0 0-2.104-.526l1.368 12.582 6.575-5.807-.189-.578q-.452.231-.936.378.105.172.179.358a.25.25 0 0 1-.096.315l-.63.442a.3.3 0 0 1-.159.053h-.062a.3.3 0 0 1-.18-.137c-.315-.526-1.126-1.862-2.314-3.05-1.178-1.2-2.441-1.979-2.915-2.263a.25.25 0 0 1-.105-.315l.232-.653a.3.3 0 0 1 .137-.157.23.23 0 0 1 .21 0c.081.027.18.08.294.141q.098.054.211.11"/>
    <path fill="#EC1C24" d="m9.533 19.497 4.25-3.767h.01l-.841-7.66-7.712 2.442z"/>
    <path fill="#00A74F" d="M2.032 11.543 2 12.31a9.54 9.54 0 0 0 5.765 8.764l1.473-1.315-4.366-9.121z"/>
    <path fill="#0059A9" d="M3.34 7.45a9.2 9.2 0 0 0-1.256 3.704l2.63-.842z"/>
    <path fill="#0077C0" d="M12.374 2.81a11 11 0 0 0-.832-.031A9.51 9.51 0 0 0 3.578 7.06l1.505 3.124L12.9 7.692z"/>
</svg>
